!!!OTL: Morgen mu&szlig; ich fort von hier (2-35), S. 92f
!!!id: K1119
**kern
*clefG2
*k[f#c#]
*D:
{16d
=1
16d
4.a
8f#
8b
8a
=2
8.a
16g
4f#}
4r
=3
{8e
8f#
8g
8b
8a
8g
=4
4g
4f#}
4r
=5
{4.a
8f#
8b
8a
=6
8.a
16g
4f#}
4r
=7
{8e
8a
8.cc#
16b
8a
8g#
=8
4b
4a}
4r
=9
{4.g
8f#
8e
8d
=10
8.c#
16d
4e}
4r
=11
{4.b
8a
8g
8f#
=12
8.e
16f#
4g}
4r
=13
{4.a
8f#
8g
8a
=14
8b
8cc#
8ee
8dd
8cc#
8b}
=15
{4.a
16g
16f#
8g
8e
=16
4e
4d}
4r
==
*-
!!!minrhy: 16
!!!meters: 3/4 ]  ZZ[8
!!!cut: Morgen mu&szlig; ich fort von hier (2-35), S. 92f
!!!reg: Luxemburg
!!!trd: KINTZELE, Guillaume: An der Ucht, Bd. 2, Luxemburg 1927
!!!rhy1:   X__.X_X_X_  X_.XX__0__
!!!rhy2: X_X_X_X_X_X_  X__X__0__
!!!key: K1119  16  D 3/4 ]  ZZ[8
!!!mod: ACHTTONSKALA DUR ?]  AMBITUS[10b
!!!kad: 33352461
!!!akz: 55_24_55_26_4-7_62_56_52_
!!!fot: 'a__b__a__bw_c__cs_d__dw_
!!!for: 'a__b__a__c__a__a__d__e__
!!!fok: 'Sd_^a_Sd_^a_Vd_Vd_Sa_\__
!! PHRAS[VOLLTAKTIG]
!!!fkt: Abschiedslied
!!!bem: in der Quelle mit einer 2. Stimme versehen
!! KINTZELE
!! PR[30] 2K[7] 2G[13] 3K[0] 3G[2] 4A[9] 4Ü[0] 5A[2] 6K[0] 6G[0]
!! 7K[0] 7G[0] 8A[0] MEHR[0] SI[33] ABS[54] SR[20] SP[13]
!! ST[14] 2k[7] 2g[15] 3k[7] 3g[6] 4d[2] 4ü[0] 5d[0] 6k[0] 6g[0]
!! 7k[0] 7g[0] 8d[0] mehr[0] si[37] dm[-4] sr[22] sp[15]
!! 1F[3] 2F[60] 3F[26] 4F[0] LF[0] 2P[0] 3P[10] 4P[0] TRI[0] DF[4] AB[58]
!! TF[0] U3K[0] U3[0] U4[0] U4Ü[0] U5[11] U6K[0] U6[0] U7K[0] U7[7]
!! N1[29] N2K[0] N2[24] N3K[0] N3[22] N4[4] N4Ü[0] N5[4] N6K[0] N6[0]
!!!n7k: 0] N7[0] O1[0] O2K[0] O2[0] O3K[0] O3[0] HÖ[0
!!!RNB: symbol: &szlig; = sz ligature (UTF-8: ÃŸ)
